-----BEGIN PGP PUBLIC KEY BLOCK-----

xjMEaiG/cxYJKwYBBAHaRw8BAQdA71PfkZwrraGjP4hakB/7Ei+zk1P9N828jjih
WSeQXmfNMUphbiBLbml0dGVsIChOaXRyb2tleSkgPGphbi5rbml0dGVsQG5pdHJv
a2V5LmNvbT7CjQQTFgoANQIbAQQLCQgHBBUKCAsEFgIDAQIeBQIXgBYhBPc1j2wQ
kf4VGDueEfENehDFe1LqBQJqMEj7AAoJEPENehDFe1LqgegBAI520X0VcH2d3r7i
y3ZCn/sudwzT3+uRP8rGiDEH1o+EAQCbfyv3Mdh6H46pgNBxQigsvjhFxJceAYlk
pkXXXmNiDcKTBBMWCgA7FiEE9zWPbBCR/hUYO54R8Q16EMV7UuoFAmohv3MCGwEF
CQlmAYAECwkIBwQVCggLBBYCAwECHgUCF4AACgkQ8Q16EMV7Uuq9wAD9Gfg7gO2i
FM1bkiCfWBva2H7RIOlM0Lnc9Kiw0ZescPIBAPQo2drNOPg6V/cC95/7UaRQMlZ+
vyOQ+47gkjByf8oGzjMEaiHAgxYJKwYBBAHaRw8BAQdAA+88h0RKfgJIoeRpniIx
gXl+vh4y3ZWDck4a9AeMzOTCmwQoFgoAQxYhBPc1j2wQkf4VGDueEfENehDFe1Lq
BQJqMEDiJR0BUmVwbGFjZWQgd2l0aCBzaW5nbGUgc2V0IG9mIHN1YmtleXMACgkQ
8Q16EMV7UuqumgD+Ph0HV8L3AOLq+qvIzLOVGpsMy/Sqp6nL1b857qP3V48BANho
RcGkB3a2YUzaC+41m8JX/kQoVoqsNc8yAGrNVbUCwsA1BBgWCgAmFiEE9zWPbBCR
/hUYO54R8Q16EMV7UuoFAmohwIMCGwIFCQWjmoAAgQkQ8Q16EMV7Uup2IAQZFgoA
HRYhBOPMwLYPR1M4kH7kTi8zXrpV+bicBQJqIcCDAAoJEC8zXrpV+bictZQA/RWp
0gw2MX3i6ZVZCey2mbXXgcYCpjW8iukT+uzLGsI+AP4n1mJ86kYE9tNGmNgTo0Dc
OO6z5s/Y+7OyBDWB9uzuAZkdAP0RcziHAU0eaMPugGV6SYCa4PcFBetEllTanGXh
BiGMwwD/XmpfyICsR8yvDg+GigKPhBGnbZxbOIr5GsBlmCPlWQvOMwRqMEEvFgkr
BgEEAdpHDwEBB0Azlo4weTVBz29VdZtXlku0HFpgd9IIR2hgahafDXht98J+BBgW
CgAmFiEE9zWPbBCR/hUYO54R8Q16EMV7UuoFAmowQS8CGyAFCQPCZwAACgkQ8Q16
EMV7UuoETwD+NqYuPe4UatsDePdmq8FnHf+t1Cnipa8rAUZOJXgN5IYBAODQ3+5A
XsanXIekofRHKQq71OcchniQUZVo+bSNdFcBzjMEajBBAhYJKwYBBAHaRw8BAQdA
zXO+1FVAWOP6fjfgvcC1ar7MalgxhcSlFRgJADc/4ZbCwDUEGBYKACYWIQT3NY9s
EJH+FRg7nhHxDXoQxXtS6gUCajBBAgIbAgUJA8JnAACBCRDxDXoQxXtS6nYgBBkW
CgAdFiEEB1myDW17HKXdfNmIjSUUw+FsxFcFAmowQQIACgkQjSUUw+FsxFdvbAD/
V8dW3rfuZViTPqktOK6j5jV3HoKbstcUFFikdWrYlSEBAMDXY3zQWL5BOUY5z9j7
2ufnKECpqWd+Y+E7WBqJKX0H6NABAOTHVzfDuDdWMrxQCQ09k9oFWKNjXDkQqSu4
HEcRCY9yAP49eh3HCFBMjKWDsO1cqzPn2a4HjL3lbwckGvPVN2tDDM4zBGohwAIW
CSsGAQQB2kcPAQEHQM5BvKoqi7PeoD2LpfrIKeNYcya4VZx6pARZs6rrcBNwwpsE
KBYKAEMWIQT3NY9sEJH+FRg7nhHxDXoQxXtS6gUCajBA4iUdAVJlcGxhY2VkIHdp
dGggc2luZ2xlIHNldCBvZiBzdWJrZXlzAAoJEPENehDFe1LqgZYA/jgpBCANzYwz
RHQJNFQO8vqMKOYlMEWJGER0xSzcQk0GAQCvrqop6bEC9yj38bGhUd95/8hWmh35
49ObUmSf7qRXCsJ+BBgWCgAmFiEE9zWPbBCR/hUYO54R8Q16EMV7UuoFAmohwAIC
GyAFCQPCZwAACgkQ8Q16EMV7Uuo+lgD9GnZEtyKJrKhqPVGQlRKrS5tNaa99X9pw
DNbIhxfrwtcBAO3c65y6XoU45NqUt0NZ1Ysx4tZTWzDxEtJA0yki/s0MzjMEaiHA
tBYJKwYBBAHaRw8BAQdA3ww7o7arg55SSLsId9pzSOP7vZ0qhWxoJOiHGEUDZxXC
mwQoFgoAQxYhBPc1j2wQkf4VGDueEfENehDFe1LqBQJqMEDiJR0BUmVwbGFjZWQg
d2l0aCBzaW5nbGUgc2V0IG9mIHN1YmtleXMACgkQ8Q16EMV7UuorLgEAgxRkonum
kTiWOUEqAn6j9IB8m73SkcJx72D3Q40Gb+MBALuoq7hOYR/vbyCGLrA+k7e2Ul3f
XDSO4m2HGYwZWd8Cwn4EGBYKACYWIQT3NY9sEJH+FRg7nhHxDXoQxXtS6gUCaiHA
tAIbIAUJBaOagAAKCRDxDXoQxXtS6vpHAQDHFnfdLBsb96gIj1fq6Tira0n8MgAK
JX2hOEnx0OZHNAD8DcfDgipr3TeOhcEXqNitU1LVkjgjF8Q7iq0ep69twwPOMwRq
Ib+wFgkrBgEEAdpHDwEBB0Ds3zEz0x0QydgAbcLLspv8m1v/zDCkPgL2NBxF1oQh
wMKbBCgWCgBDFiEE9zWPbBCR/hUYO54R8Q16EMV7UuoFAmowQNclHQFSZXBsYWNl
ZCB3aXRoIHNpbmdsZSBzZXQgb2Ygc3Via2V5cwAKCRDxDXoQxXtS6nBmAQC78svG
kJvjFkSae31GdxSzfoIb/kZ3cTWbaCfVHG9P6wD/YO9ghnT7g/ecZYwmTIA95kTf
Y3FdExvrsuETn3HPOwHCwDUEGBYKACYWIQT3NY9sEJH+FRg7nhHxDXoQxXtS6gUC
aiG/sAIbAgUJA8JnAACBCRDxDXoQxXtS6nYgBBkWCgAdFiEE6Zk2vd+b4mAMuxpM
6fif722iON0FAmohv7AACgkQ6fif722iON21GQEAiSOCpdSYaPSBgOY1Q7vFG2t8
wI/qpdhzTG/uARd88g4A/iUG3OK3lrGS0SDwTFrFu2bySyYgf6HmMiO5o11jChgI
H9QBANkGFUZOGnofx8VVMYd2xSVYSZkv+ncVBNRx0/2uLsijAQDf1CvDXKhdvdJB
m5PT9bzz4M7NSH88mJe8LhZFrcYoBs44BGohv9QSCisGAQQBl1UBBQEBB0BXGaxG
qUUIHRv506PABLYqIhHzHit5htgMI3ypfKwfMQMBCAfCmwQoFgoAQxYhBPc1j2wQ
kf4VGDueEfENehDFe1LqBQJqMEDiJR0BUmVwbGFjZWQgd2l0aCBzaW5nbGUgc2V0
IG9mIHN1YmtleXMACgkQ8Q16EMV7UuqpVwEAtREJPsn4q629czHdMsgNCoZSNxcS
uy4FGY67cNezakABAIjL6AlAFrY6ypqxlC2uJL6rD8QJWTCqDVH69Mqqso0Hwn4E
GBYKACYWIQT3NY9sEJH+FRg7nhHxDXoQxXtS6gUCaiG/1AIbDAUJA8JnAAAKCRDx
DXoQxXtS6rDBAP9Y+B2YpJLYVmpXdbyLFMEmtGXjRJamrRQK+laHryWA7wEAlF6T
5I++ZeaXvxOvc8j9clq5t289gqbg+pSIWDLqzwHOOARqIcCYEgorBgEEAZdVAQUB
AQdAkg1jq3frnj1Ysm4TNtg/0C8ureE+LrMOJ66/KpCE4XsDAQgHwpsEKBYKAEMW
IQT3NY9sEJH+FRg7nhHxDXoQxXtS6gUCajBA4iUdAVJlcGxhY2VkIHdpdGggc2lu
Z2xlIHNldCBvZiBzdWJrZXlzAAoJEPENehDFe1Lq5IUBAK81ZmarAblnXz71UodY
50LLZ3UCpqODkB37ZrmuEfkiAP4lmDAsWtosnHxhqwKdOF4mNr1SNqPv9IoaikPJ
tmrCBcJ+BBgWCgAmFiEE9zWPbBCR/hUYO54R8Q16EMV7UuoFAmohwJgCGwwFCQWj
moAACgkQ8Q16EMV7Uupi7wD/Xz3yBvszfsD3VDNC5NwkwLBUABbwfvasSoYLJs/6
JYEBAMw23L6OGVofbE1KXyq7l9XraMSo+lkZIrpNRbVN8i0IzjgEajBBHhIKKwYB
BAGXVQEFAQEHQNfWU8b27q4+wyJK+ZO99MCD+vDQS4sxfl7fajsGQNwlAwEIB8J+
BBgWCgAmFiEE9zWPbBCR/hUYO54R8Q16EMV7UuoFAmowQR4CGwwFCQPCZwAACgkQ
8Q16EMV7UuqrxAEApgnUwul/jLrasrCtqyBh+1TdWfiOSbGj2aAT4Px956kBAMWI
pG6qgSKxvjU+IRgCbPZYdYM/ep1xd3awESWwzzsG
=QPRr
-----END PGP PUBLIC KEY BLOCK-----
